X:1
T:Psalm 139 (Becker) - Schütz
T:James Gibb editions
%%score [ ( 1 2 ) ( 3 4 ) ]
L:1/8
Q:1/4=98
M:2/2
K:C
V:1 treble nm="Soprano Alto"
V:2 treble 
V:3 bass nm="Tenor Bass"
V:4 bass 
V:1
"^Cornelius Becker\n(1561-1604)""^Psalm 139, SWV 244""^Heinrich Schütz\n(1585-1672)" B2 BB c2 B2 | %1
w: ~Herr, du er- forscht mein|
w: was ich tu und be-|
 A4 G2 G2 | A2 G2 F2 D2 | E4 :|[M:2/2] B2 cc A2 B2 | c4 c4 | B2 cd B2 A2 | ^G4 G2 e2 | %8
w: Sin- ne und|kennst mein Herz von|Grund,|ob ich sitz o- der|ste- he,|was durch mein G'dan- ken|ge- het, das|
w: gin- ne, weißt|al- les du zur|Stund,|||||
 d2 d2 c4 x2 | B4 A8 |] %10
w: ist dir al-|les kund.|
w: ||
V:2
 G2 GG E2 G2 | F4 E2 E2 | F2 E2 D2 A,2 | B,4 :|[M:2/2] ^G2 AA ^F2 =G2 | G4 G4 | G2 GA G2 E2 | %7
 E4 E2 A2 | ^F2 G2 E6 | E2 E8 x2 |] %10
V:3
 E2 EE C2 G,2 | C4 C2 C2 | C2 C2 A,2 A,2 |"^James Gibb editions" ^G,4 :| %4
[M:2/2]"^2. Wo ich mich hin verberge, \nda bist du, Herr, um mich \nund siehst all meine Wege, \ndir ist verborgen nichts; \ndas Wort in meinem Munde \ndas hast du schon erkundet, \neh meine Zung es spricht.\n\n3. Was ich nah oder ferne \nzu tun mir nehme für, \ndas schaffst du, Gott, mein Herre, \ndu hâlst dein Hand ob mir. \nIch kann mich nicht drein finden,\ndie Weisheit zu ergründen \nist mir zu hoch und schwer.\n\n4. Wo soll ich denn hingehen, \ndaß ich mög sicher sein \nvor dein'm Geist zu bestehen, \nich weiß nicht aus noch ein, \nich mag mich sehr bemühen \nund wird doch nicht entfliehen \ndem Angesichte dein.\n\n5. Wollt ich gen Himmel fahren,\ndaselbst zu sichern mich, \nweiß ich gewiß fürwahre, \ndaß ich da finde dich; \nmacht ich mir dann mein Bette,\nmich in der Höll zu retten, \nso bist du auch um mich." E2 EE D2 D2 | %5
 E4 E4 | %6
 D2 EF"^6. Und wenn ich Flügel hätte \nund flöh von dannen fern, \ngleich wie die Morgenröte \nan das äußerste Meer,\nwirst du mich doch ausspüren \nund deine Hand mich führen, \nmich hält dein Rechte schwer.\n\n7. Wollt ich dann auch wohl sagen:\nFinsternis decke mich, \nso muß doch wie am Tage \ndie Nacht um mich sein Licht. \nWenns auch stockfinster wäre,\nwird's doch hell leuchten sehre \nvor deinem Angesicht.\n\n8. Sehr köstlich Übermaßen \nsind die Gedanken dein, \nVernunft kann sie nicht fassen, \nmehr denn des Sands ihr sein; \nso oft ich nur erwache, \nmit Fleiß ich sie betrachte, \nmein Herz will bei dir sein.\n\n9. Erforsch, Herr, mein Gedanken, \nprüf und erfahr mein Herz, \nob ich auch von dir wanke \nin Trübsal, Leid und Schmerz.\nWär ich auf bösem Wege,\nso leit mich deine Stege, \newig bewahr mein Herz." D2 C2 | %7
 B,4 B,2"^War" C2 | A,2 B,4 A,4 | ^G,2 A,8 x2 |] %10
V:4
 E,2 E,E, A,2 E,2 | F,4 C,2 C,2 | F,2 C,2 D,2 F,2 | E,4 :|[M:2/2] E,2 A,A, D,2 G,2 | C,4 C,4 | %6
 G,2 E,D, G,2 A,2 | E,4 E,2 A,,2 | D,2 B,,2 (C,3 D, x2 | E,2) E,2 A,,8 |] %10

